X: 15844
T: Gortnatubrid, The
R: polka
M: 2/4
K: Bminor
|:f>e|dB cA|Bc de|fd e/f/e/d/|cA- Af/e/|
dB c/B/A|Bc d>e|fd ec|B2:|
|:B2|f/g/f/e/ ba|fe f>e|dB c/B/A|Bc de|
fb a>g|fe f>e|dB cA|B2:|

